X:20
T: Vincent Blin's #2
S: "Where's the Crack v/1" (DJ Taylor)
Z: B.Black
L: 1/8
M: 4/4
R: reel
K: Bdor
B2 cA BF F2 |EFAB ceae |fB B2 FB B2 | Acef c2 BA |
Bbbf a2 fe |cfec BAFA |BF F2 EFAc | fcec B4 :|
FB B2 Ac c2 |df f2 ea a2 |fB B2 FB B2 | ABcf c2 BA |
|1 FB B2 Ac c2 |df f2 eA A2 |Bf f2 ecAc | cAeA B2 BA :|
|2 Bbbf a2 fe |cfec BAFA |BF F2 EFAc | fcec B4 ||
